picto/aeroplane-seating-framed.svg

<svg class="color-immutable" width="30" height="30" viewBox="0 0 30 30" fill="none" xmlns="http://www.w3.org/2000/svg"><path d="M30 0H0V30H30V0Z" fill="#2D327D"/><path d="M25.5 3C26.325 3 27 3.675 27 4.5V25.5C27 26.325 26.325 27 25.5 27H4.5C3.675 27 3 26.325 3 25.5V4.5C3 3.675 3.675 3 4.5 3H25.5ZM25.5 2.625H4.5C3.46613 2.625 2.625 3.46613 2.625 4.5V25.5C2.625 26.5339 3.46613 27.375 4.5 27.375H25.5C26.5339 27.375 27.375 26.5339 27.375 25.5V4.5C27.375 3.46613 26.5339 2.625 25.5 2.625Z" fill="white"/><path d="M24 23.7H6V24H24V23.7Z" fill="white"/><path fill-rule="evenodd" clip-rule="evenodd" d="M23.625 18.75H19.8162L19.0449 16.275H22.6125C22.8806 16.275 23.1 16.0556 23.1 15.7875C23.1 15.5194 22.8806 15.3 22.6125 15.3H18.741L17.175 10.275H15.825L18.2917 19.8H18.2925C18.4057 20.19 18.7657 20.475 19.1925 20.475H23.625C23.8312 20.475 24 20.3063 24 20.1V19.125C24 18.9188 23.8312 18.75 23.625 18.75Z" fill="white"/><path fill-rule="evenodd" clip-rule="evenodd" d="M18 8.925C18.1582 8.75925 18.15 8.6805 18.15 8.52825V6.375C18.15 6.16875 17.9812 6 17.775 6H16.2C15.9937 6 15.825 6.16875 15.825 6.375V9.825H17.175L18 8.925Z" fill="white"/><path fill-rule="evenodd" clip-rule="evenodd" d="M8.4675 19.8C8.58075 20.19 8.94075 20.475 9.3675 20.475H13.8C14.0063 20.475 14.175 20.3063 14.175 20.1V19.125C14.175 18.9188 14.0063 18.75 13.8 18.75H9.99127L9.2199 16.275H12.7875C13.0556 16.275 13.275 16.0556 13.275 15.7875C13.275 15.5194 13.0556 15.3 12.7875 15.3H8.91607L7.35 10.275H6L8.46675 19.8H8.4675Z" fill="white"/><path fill-rule="evenodd" clip-rule="evenodd" d="M8.175 8.925C8.33325 8.75925 8.325 8.6805 8.325 8.52825V6.375C8.325 6.16875 8.15625 6 7.95 6H6.375C6.16875 6 6 6.16875 6 6.375V9.825H7.35L8.175 8.925Z" fill="white"/></svg>

<svg class="color-immutable" width="30" height="30" viewBox="0 0 30 30" fill="none" xmlns="http://www.w3.org/2000/svg"><g clip-path="url(#a)"><path d="M30 0H0v30h30V0Z" fill="#2D327D"/><path d="M25.5 3c.825 0 1.5.675 1.5 1.5v21c0 .825-.675 1.5-1.5 1.5h-21c-.825 0-1.5-.675-1.5-1.5v-21C3 3.675 3.675 3 4.5 3h21Zm0-.375h-21A1.877 1.877 0 0 0 2.625 4.5v21c0 1.034.841 1.875 1.875 1.875h21a1.877 1.877 0 0 0 1.875-1.875v-21A1.877 1.877 0 0 0 25.5 2.625Z" fill="#fff"/><path d="M24 23.7H6v.3h18v-.3Z" fill="#fff"/><path fill-rule="evenodd" clip-rule="evenodd" d="M23.625 18.75h-3.809l-.771-2.475h3.567c.269 0 .488-.22.488-.487a.489.489 0 0 0-.488-.488h-3.871l-1.566-5.025h-1.35l2.467 9.525c.114.39.474.675.9.675h4.433A.376.376 0 0 0 24 20.1v-.975a.376.376 0 0 0-.375-.375ZM18 8.925c.158-.166.15-.245.15-.397V6.375A.376.376 0 0 0 17.775 6H16.2a.376.376 0 0 0-.375.375v3.45h1.35l.825-.9ZM8.467 19.8c.114.39.474.675.9.675H13.8a.376.376 0 0 0 .375-.375v-.975a.376.376 0 0 0-.375-.375H9.991l-.771-2.475h3.567c.269 0 .488-.22.488-.487a.489.489 0 0 0-.488-.488h-3.87L7.35 10.275H6L8.467 19.8ZM8.175 8.925c.158-.166.15-.245.15-.397V6.375A.376.376 0 0 0 7.95 6H6.375A.376.376 0 0 0 6 6.375v3.45h1.35l.825-.9Z" fill="#fff"/></g><defs><clipPath id="a"><path fill="#fff" d="M0 0h30v30H0z"/></clipPath></defs></svg>
